assets/icons/pano-360.svg

<?xml version="1.0" encoding="UTF-8"?>
<svg width="24px" height="24px" viewBox="0 0 24 24" version="1.1" xmlns="http://www.w3.org/2000/svg" xmlns:xlink="http://www.w3.org/1999/xlink">
    <title>VW/Icons/pano-360</title>
    <defs>
        <path d="M11.9999999,-4.99999615e-08 C14.775,-4.99999615e-08 17.475,0.974999954 19.65,2.69999996 L19.65,2.69999996 L19.425,0.824999953 L19.875,0.749999953 L20.25,3.52499996 L17.475,3.67499997 L17.475,3.22499996 L19.425,3.14999996 C17.325,1.42499996 14.7,0.449999952 11.9999999,0.449999952 C5.62499997,0.449999952 0.449999952,5.62499997 0.449999952,12 C0.449999952,18.375 5.62499997,23.55 11.9999999,23.55 C18.375,23.55 23.55,18.375 23.55,12 L23.55,12 L23.9999999,12 C23.9999999,18.6 18.6,24 11.9999999,24 C5.39999997,24 -5.00000183e-08,18.6 -5.00000183e-08,12 C-5.00000183e-08,5.39999997 5.39999997,-4.99999615e-08 11.9999999,-4.99999615e-08 Z M12.75,8.17499998 L11.55,11.325 C11.7,11.25 11.85,11.175 12.075,11.175 C12.45,11.175 12.75,11.325 12.975,11.625 C13.275,11.925 13.35,12.3 13.35,13.5 C13.35,14.55 13.275,14.925 12.975,15.3 C12.75,15.675 12.3,15.825 11.85,15.825 C11.4,15.825 10.95,15.6 10.725,15.3 C10.425,14.925 10.35,14.475 10.35,13.5 C10.35,12.75 10.5,12.15 10.65,11.625 L10.65,11.625 L11.925,8.24999998 L11.925,8.17499998 L12.75,8.17499998 Z M8.02499998,8.09999998 C8.47499999,8.09999998 8.84999999,8.24999998 9.07499999,8.47499999 C9.37499999,8.77499999 9.52499999,9.22499999 9.52499999,10.05 C9.52499999,10.65 9.44999999,10.95 9.29999999,11.25 C9.22499999,11.475 9.07499999,11.625 8.92499999,11.7 C9.14999999,11.775 9.29999999,11.925 9.37499999,12.075 C9.52499999,12.45 9.59999998,12.75 9.59999998,13.575 C9.59999998,14.475 9.52499999,15 9.14999999,15.375 C8.92499999,15.6 8.47499999,15.75 8.09999998,15.75 C7.72499998,15.75 7.27499998,15.6 7.04999998,15.375 C6.74999998,15.15 6.59999998,14.775 6.59999998,14.25 L6.59999998,14.25 L6.59999998,13.8 L7.49999998,13.8 L7.49999998,14.325 C7.49999998,14.85 7.79999998,15.075 8.17499998,15.075 C8.39999999,15.075 8.54999999,15 8.62499999,14.85 C8.77499999,14.625 8.84999999,14.25 8.84999999,13.575 C8.84999999,12.825 8.77499999,12.525 8.62499999,12.3 C8.54999999,12.15 8.39999999,12.075 8.17499998,12.075 L8.17499998,12.075 L7.79999998,12.075 L7.79999998,11.325 L8.17499998,11.325 C8.32499998,11.325 8.47499999,11.25 8.54999999,11.175 C8.77499999,11.025 8.77499999,10.65 8.77499999,10.125 C8.77499999,9.59999998 8.69999999,9.29999999 8.54999999,9.07499999 C8.39999999,8.99999999 8.32499998,8.92499999 8.09999998,8.92499999 C7.72499998,8.92499999 7.49999998,9.14999999 7.49999998,9.67499999 L7.49999998,9.67499999 L7.49999998,10.2 L6.59999998,10.2 L6.59999998,9.74999999 C6.59999998,9.14999999 6.74999998,8.84999999 6.97499998,8.47499999 C7.27499998,8.24999998 7.64999998,8.09999998 8.02499998,8.09999998 Z M15.675,8.17499998 C16.05,8.17499998 16.5,8.32499998 16.725,8.54999999 C17.025,8.77499999 17.175,9.14999999 17.175,9.67499998 L17.175,9.67499998 L17.175,14.175 C17.175,14.7 16.95,15.075 16.725,15.3 C16.5,15.525 16.05,15.675 15.675,15.675 C15.3,15.675 14.85,15.525 14.625,15.3 C14.325,15.075 14.175,14.7 14.175,14.175 L14.175,14.175 L14.175,9.67499998 C14.175,9.14999999 14.4,8.77499999 14.625,8.54999999 C14.85,8.32499998 15.3,8.17499998 15.675,8.17499998 Z M11.925,11.925 C11.7,11.925 11.55,12 11.475,12.15 C11.25,12.375 11.25,12.825 11.25,13.5 L11.250225,13.69575 C11.25225,14.26275 11.2725,14.6475 11.475,14.85 C11.55,15 11.7,15.075 11.925,15.075 C12.075,15.075 12.225,15 12.375,14.85 C12.6,14.625 12.6,14.1 12.6,13.5 C12.6,12.9 12.6,12.375 12.375,12.15 C12.3,12 12.075,11.925 11.925,11.925 Z M15.675,8.92499999 C15.3,8.92499999 15,9.14999999 15,9.67499999 L15,9.67499999 L15,14.25 C15,14.775 15.3,15 15.675,15 C16.05,15 16.35,14.775 16.35,14.25 L16.35,14.25 L16.35,9.67499999 C16.35,9.22499999 16.05,8.92499999 15.675,8.92499999 Z M19.05,8.17499998 C19.575,8.17499998 19.95,8.54999999 19.95,9.07499999 C19.95,9.59999999 19.575,9.97499999 19.05,9.97499999 C18.525,9.97499999 18.15,9.59999999 18.15,9.07499999 C18.15,8.54999999 18.525,8.17499998 19.05,8.17499998 Z M19.05,8.54999999 C18.75,8.54999999 18.525,8.77499999 18.525,9.07499999 C18.525,9.37499999 18.75,9.59999999 19.05,9.59999999 C19.35,9.59999999 19.575,9.37499999 19.575,9.07499999 C19.575,8.77499999 19.275,8.54999999 19.05,8.54999999 Z" id="path-1"></path>
    </defs>
    <g id="VW/Icons/pano-360" stroke="none" stroke-width="1" fill="none" fill-rule="evenodd">
        <mask id="mask-2" fill="white">
            <use xlink:href="#path-1"></use>
        </mask>
        <g id="Combined-Shape" fill-rule="nonzero"></g>
        <g id="Group" mask="url(#mask-2)" fill="#000000">
            <g id="🎨-color">
                <rect id="Swatch" x="0" y="0" width="24" height="24"></rect>
            </g>
        </g>
    </g>
</svg>

<svg
    xmlns="http://www.w3.org/2000/svg"    
    x="0px"
    y="0px"
    viewBox="0 0 24 24"
    aria-labelledby="chevron down"
    role="presentation"
  >
    <title  lang="en">chevron down</title>

    <g fill="currentColor">
	<path id="path-1_00000028325800253141385130000017682293124886553986_" d="M12,0c2.8,0,5.5,1,7.6,2.7l0,0l-0.2-1.9l0.5-0.1l0.4,2.8
		l-2.8,0.2V3.2l1.9-0.1c-2.1-1.7-4.7-2.7-7.4-2.7C5.6,0.4,0.4,5.6,0.4,12S5.6,23.5,12,23.5S23.5,18.4,23.5,12l0,0H24
		c0,6.6-5.4,12-12,12S0,18.6,0,12S5.4,0,12,0z M12.8,8.2l-1.2,3.1c0.1-0.1,0.3-0.1,0.5-0.1c0.4,0,0.7,0.1,0.9,0.4
		c0.3,0.3,0.4,0.7,0.4,1.9c0,1.1-0.1,1.4-0.4,1.8c-0.2,0.4-0.7,0.5-1.1,0.5c-0.5,0-0.9-0.2-1.1-0.5c-0.3-0.4-0.4-0.8-0.4-1.8
		c0-0.8,0.1-1.4,0.3-1.9l0,0l1.3-3.4V8.2H12.8z M8,8.1c0.5,0,0.8,0.1,1.1,0.4c0.3,0.3,0.4,0.8,0.4,1.6c0,0.6-0.1,0.9-0.2,1.2
		c-0.1,0.2-0.2,0.4-0.4,0.4c0.2,0.1,0.4,0.2,0.4,0.4c0.1,0.4,0.2,0.7,0.2,1.5c0,0.9-0.1,1.4-0.5,1.8c-0.2,0.2-0.7,0.4-1,0.4
		c-0.4,0-0.8-0.1-1.1-0.4c-0.3-0.2-0.5-0.6-0.5-1.1l0,0v-0.4h0.9v0.5c0,0.5,0.3,0.8,0.7,0.8c0.2,0,0.4-0.1,0.4-0.2
		c0.1-0.2,0.2-0.6,0.2-1.3c0-0.8-0.1-1.1-0.2-1.3c-0.1-0.2-0.2-0.2-0.4-0.2l0,0H7.8v-0.8h0.4c0.1,0,0.3-0.1,0.4-0.1
		c0.2-0.2,0.2-0.5,0.2-1.1S8.7,9.3,8.6,9.1C8.4,9,8.3,8.9,8.1,8.9c-0.4,0-0.6,0.2-0.6,0.8l0,0v0.5H6.6V9.8c0-0.6,0.2-0.9,0.4-1.3
		C7.3,8.2,7.7,8.1,8,8.1z M15.7,8.2c0.4,0,0.8,0.1,1.1,0.4c0.3,0.2,0.4,0.6,0.4,1.1l0,0v4.5c0,0.5-0.2,0.9-0.4,1.1
		c-0.2,0.2-0.7,0.4-1.1,0.4c-0.4,0-0.8-0.2-1.1-0.4c-0.3-0.2-0.4-0.6-0.4-1.1l0,0V9.7c0-0.5,0.2-0.9,0.4-1.1
		C14.9,8.3,15.3,8.2,15.7,8.2z M11.9,11.9c-0.2,0-0.4,0.1-0.4,0.2c-0.2,0.2-0.2,0.7-0.2,1.4l0,0.2c0,0.6,0,1,0.2,1.2
		c0.1,0.1,0.2,0.2,0.4,0.2c0.1,0,0.3-0.1,0.4-0.2c0.2-0.2,0.2-0.8,0.2-1.4s0-1.1-0.2-1.4C12.3,12,12.1,11.9,11.9,11.9z M15.7,8.9
		c-0.4,0-0.7,0.2-0.7,0.8l0,0v4.6c0,0.5,0.3,0.8,0.7,0.8c0.4,0,0.7-0.2,0.7-0.8l0,0V9.7C16.4,9.2,16,8.9,15.7,8.9z M19,8.2
		c0.5,0,0.9,0.4,0.9,0.9C20,9.6,19.6,10,19,10c-0.5,0-0.9-0.4-0.9-0.9C18.1,8.6,18.5,8.2,19,8.2z M19,8.6c-0.3,0-0.5,0.2-0.5,0.5
		s0.2,0.5,0.5,0.5c0.3,0,0.5-0.2,0.5-0.5S19.3,8.6,19,8.6z"/>
</g>
</svg>
